X:1
T:Welcome Whisky Back Again
T:Welcome Whisky Back Again
T:Niel Gow
C:Niel Gow
L:1/8
Q:1/8=128
M:4/4
K:Bb
V:1 treble 
V:1
|: B,<B B<d c>B c<d | B>F G<B F<D C2 | B,<B B<d c>B c<d | B>F G<B F<D B,2 | B,<B B<d c>B c<d | %5
 B<c G>B F<D C2 | B,<B B<d c>B c<d | B>F G<B F<D B,2 :: d<f f<g f>d c>B | d<f f>g f<d c2 | %10
 d<f f<g f>d c<d | B>F G<B F<D B,2 | d<f f<g f>d c>B | d<f f>g f<d c2 | d<f c<d B>c d>c | %15
 B>F G<B F<D B,2 :| %16

